dist/img/icons/pen.svg

<svg width="16" height="16" viewBox="0 0 16 16" fill="none" xmlns="http://www.w3.org/2000/svg">
<path fill-rule="evenodd" clip-rule="evenodd" d="M14.9292 1.79211L13.5467 0.402715C13.0124 -0.134238 12.1448 -0.134238 11.6086 0.402715L10.2843 1.73362L13.3844 4.84912L14.9292 3.2967C15.3436 2.88021 15.3436 2.20857 14.9292 1.79211ZM9.47652 2.5434L12.5767 5.65886L4.7293 13.545L1.63089 10.4296L9.47652 2.5434ZM0.435397 15.2303C0.181456 15.2924 -0.0477916 15.0638 0.00862696 14.8086L0.791601 11.2732L3.88998 14.3886L0.435397 15.2303Z" fill="#7E20C8"/>
</svg>

<svg width="16" height="16" viewBox="0 0 16 16" fill="none" xmlns="http://www.w3.org/2000/svg"><path fill-rule="evenodd" clip-rule="evenodd" d="M14.93 1.792L13.546.402a1.367 1.367 0 0 0-1.938 0l-1.325 1.332 3.1 3.115 1.545-1.552a1.066 1.066 0 0 0 0-1.505zm-5.453.751l3.1 3.116-7.848 7.886-3.098-3.115 7.846-7.887zM.435 15.23a.354.354 0 0 1-.426-.421l.783-3.536L3.89 14.39l-3.455.841z" fill="#7E20C8"/></svg>
